src/app/print/link-list/images/linkedin.svg

<?xml version="1.0" standalone="no"?>
<!DOCTYPE svg PUBLIC "-//W3C//DTD SVG 1.0//EN" "http://www.w3.org/TR/2001/REC-SVG-20010904/DTD/svg10.dtd">
<svg xmlns="http://www.w3.org/2000/svg" xmlns:xlink="http://www.w3.org/1999/xlink" id="body_1" width="50" height="50">

<g transform="matrix(0.1953125 0 0 0.1953125 0 0)">
	<g>
        <path d="M0 18.338C 0 8.216 8.474 0 18.92 0L18.92 0L237.08 0C 247.53 0 256 8.216 256 18.338L256 18.338L256 237.665C 256 247.79 247.53 256 237.08 256L237.08 256L18.92 256C 8.475 256 0 247.791 0 237.668L0 237.668L0 18.335L0 18.338z" stroke="none" fill="#006699" fill-rule="nonzero" />
        <path d="M77.796 214.238L77.796 98.986L39.488 98.986L39.488 214.238L77.8 214.238L77.796 214.238zM58.65 83.253C 72.006004 83.253 80.321 74.403 80.321 63.343C 80.071 52.031 72.006 43.427998 58.904 43.427998C 45.793 43.427998 37.23 52.031 37.23 63.341995C 37.23 74.40199 45.542 83.252 58.399002 83.252L58.399002 83.252L58.647003 83.252zM99 214.238L137.305 214.238L137.305 149.883C 137.305 146.443 137.555 142.99399 138.56699 140.537C 141.33499 133.65201 147.63799 126.525 158.22299 126.525C 172.081 126.525 177.62799 137.093 177.62799 152.588L177.62799 152.588L177.62799 214.238L215.93199 214.238L215.93199 148.156C 215.93199 112.757 197.036 96.284004 171.833 96.284004C 151.17 96.284004 142.09499 107.83301 137.053 115.699005L137.053 115.699005L137.308 115.699005L137.308 98.99L99.002 98.99C 99.502 109.802 98.999 214.242 98.999 214.242z" stroke="none" fill="#FFFFFF" fill-rule="nonzero" />
	</g>
</g>
</svg>

<svg height="2500" width="2490" xmlns="http://www.w3.org/2000/svg" viewBox="0 0 256 256"><g fill="none"><path d="M0 18.338C0 8.216 8.474 0 18.92 0h218.16C247.53 0 256 8.216 256 18.338v219.327C256 247.79 247.53 256 237.08 256H18.92C8.475 256 0 247.791 0 237.668V18.335z" fill="#069"/><path d="M77.796 214.238V98.986H39.488v115.252H77.8zM58.65 83.253c13.356 0 21.671-8.85 21.671-19.91-.25-11.312-8.315-19.915-21.417-19.915-13.111 0-21.674 8.603-21.674 19.914 0 11.06 8.312 19.91 21.169 19.91h.248zM99 214.238h38.305v-64.355c0-3.44.25-6.889 1.262-9.346 2.768-6.885 9.071-14.012 19.656-14.012 13.858 0 19.405 10.568 19.405 26.063v61.65h38.304v-66.082c0-35.399-18.896-51.872-44.099-51.872-20.663 0-29.738 11.549-34.78 19.415h.255V98.99H99.002c.5 10.812-.003 115.252-.003 115.252z" fill="#fff"/></g></svg>
